X:5610
T:Roisin Bheag Dubh
T:My Little Dark Rose
O:england
M:3/4
L:1/4
Q:40
C:Traditional Celtic
R:Slow/Sad
B:FOUR WINDS MUSIC COLLECTION
K:D
A/2F/2 | A D F/2A/2 | (e2 d/2e/2 | f2 e) | d/2 B> AF/2 |
(E2 D/2E/2 | F2) E | D-D2 | d2 e | f/2 g f/2e/2 |
d2 e/2f/2 | A2 F/2A/2 | (e2 d/2e/2 f2 e) |
d-d2 | d/2 d e/2f/2 | g2 f/2e/2 | d2 e/2f/2 |
A2 F/2A/2 | (e2 d/2e/2 | f2 e) | d2 B | z2 A/2F/2 |
A D F/2A/2 | (e2 d/2e/2 | f2 e) | d/2 B> AF/2 |
(E2 D/2E/2 | F2) E |1 D2 z :|2 D-D2  |]
W: Arrangement:  Patrick O. Young, 1998.
%  ABC2Win Version 2.1 1/27/99
